X:198
T: Marguerite (3-39), S. 101f
N: K1173
O: Luxemburg
S: KINTZELE, Guillaume: An der Ucht, Bd. 3 Luxemburg 1928]
R: Abschied, Trennung, Krieg]
M: 2/4
L: 1/16
K: F
 | c6A2 | d2d2c2c2 | B6G2 | E8
d6d2 | e2e2d2d2 | c6A2 | F8
c6A2 | d2d2c2c2 | B6G2 | E8
d6d2 | e2e2d2d2 | c4
c3c | d2d2c2c2 | B4B3B | c2c2B2B2 | A4
c4 | f6c2 | e4d2d2 | e6d2 | d4c4
c4=B2c2 | e6d2 | c2c2B2B2 | A4
c4 | f6c2 | e4d2d2 | e6d2 | d4c4
c4=B2c2 | e6d2 | c2c2d2e2 | f8

